X:1
T:Title
%%score { ( 1 4 5 ) | ( 2 3 ) }
L:1/8
Q:1/4=100
M:4/4
K:G
V:1 treble nm="Grand Piano"
V:4 treble 
V:5 treble 
V:2 treble 
V:3 treble 
V:1
 B2 G2 c2 B2 | [FA]3 [FB] [FA]2 [EG]2 | [EG]2 E2 G2 E2 | D2 [DB]2 A4 | B2 G2 c2 B2 | d3 A c2 B2 | %6
w: Lewis~Sperry~Chafer * * *||||||
 B2 A2 d2 [A,DA]2 | [A,^CF]3[K:bass] [G,CE] [F,D]4 | [Dd]2 [Dd]2 [Dd]2 [CDF]2 | %9
w: |||
 [B,DG]3 [FA] [DGB]2 d2 | e2 e2 e2 B2 | [G^c]2 [GA]2 [Fd]4 | B2 G2 c2 B2 | %13
w: ||||
 [CFA]3 [DFB] [CFA]2 [B,EG]2 | [CEG]2 [G,CE]2 [G,D]2 [DB]2 | [DB]4 z4 |] %16
w: |||
V:2
 [G,DG]2 [G,B,]2 [G,EG]2 [G,DG]2 | [D,C]3 [D,D] [^D,C]2 [E,B,]2 | %2
 [C,C]2 [C,G,C]2 [E,G,C]2 [C,G,C]2 | [B,,G,]2 [G,,G,]2 [D,F,D]4 | %4
 [G,D]2 [G,B,]2[K:treble] [G,EG]2 [G,DG]2 | [F,CD]3 [F,CD] [F,A,D]2 [G,D]2 | %6
 [G,A,^C]2 [G,A,C]2 [F,A,D]2 F,,G,, | A,,3 A,, D,4 | [D,F,]2 [E,G,]2 [F,A,]2 A,2 | %9
 G,2 z C B,,2 [G,,B,G]2 | [E,G,E]2 [F,A,E]2 [G,B,E]2 [G,B,E]2 | [E,A,]2 [^C,A,]2 [D,A,]4 | %12
 [G,DG]2 [G,B,]2 [G,EG]2 [G,DG]2 | D,3 D, ^D,2 E,2 | C,2 C,2 B,,2 [G,,G,]2 | [D,G,]2 z C G,,4 |] %16
V:3
 x8 | x8 | x8 | x8 | x4[K:treble] x4 | x8 | x8 | x8 | x8 | z2 D,2 z4 | x8 | x8 | x8 | x8 | x8 | %15
 z2 D,2 z4 |] %16
V:4
 x8 | x8 | x8 | x8 | x8 | x8 | x8 | x3[K:bass] x5 | x8 | x8 | x8 | x8 | x8 | x8 | x8 | %15
 z2 z A [G,B,G]4 |] %16
V:5
 x8 | x8 | x8 | x8 | x8 | x8 | x8 | x3[K:bass] x5 | x8 | x8 | x8 | x8 | x8 | x8 | x8 | z2 F,2 z4 |] %16

